images/kyungran/full-hart-icon.svg

<svg width="40" height="35" viewBox="0 0 40 35" fill="none" xmlns="http://www.w3.org/2000/svg">
<g clip-path="url(#clip0_309_3)">
<path d="M10 14.9609V14.7656C10 12.0312 11.9531 9.6875 14.6484 9.25781C16.4062 8.94531 18.2422 9.53125 19.5312 10.8203L20 11.25L20.4297 10.8203C21.7188 9.53125 23.5547 8.94531 25.3125 9.25781C28.0078 9.6875 30 12.0312 30 14.7656V14.9609C30 16.6016 29.2969 18.1641 28.125 19.2578L21.0547 25.8594C20.7812 26.1328 20.3906 26.25 20 26.25C19.5703 26.25 19.1797 26.1328 18.9062 25.8594L11.8359 19.2578C10.6641 18.1641 10 16.6016 10 14.9609Z" fill="#639CFF"/>
</g>
<defs>
<clipPath id="clip0_309_3">
<rect width="40" height="35" fill="white"/>
</clipPath>
</defs>
</svg>

<svg width="40" height="35" fill="none" xmlns="http://www.w3.org/2000/svg"><g clip-path="url(#a)"><path d="M10 14.96v-.194c0-2.735 1.953-5.079 4.648-5.508 1.758-.313 3.594.273 4.883 1.562l.469.43.43-.43c1.289-1.289 3.125-1.875 4.883-1.562A5.582 5.582 0 0 1 30 14.766v.195c0 1.64-.703 3.203-1.875 4.297l-7.07 6.601c-.274.274-.664.391-1.055.391-.43 0-.82-.117-1.094-.39l-7.07-6.602C10.664 18.164 10 16.602 10 14.96Z" fill="#639CFF"/></g><defs><clipPath id="a"><path fill="#fff" d="M0 0h40v35H0z"/></clipPath></defs></svg>
